Papirus/22x22/panel/insync-syncing-1.svg

<?xml version="1.0" encoding="UTF-8" standalone="no"?>
<svg xmlns:dc="http://purl.org/dc/elements/1.1/" xmlns:cc="http://creativecommons.org/ns#" xmlns:rdf="http://www.w3.org/1999/02/22-rdf-syntax-ns#" xmlns:svg="http://www.w3.org/2000/svg" xmlns="http://www.w3.org/2000/svg" id="svg2" viewBox="0 0 1624.0097 1624.0095" version="1.1" width="22" height="22" xml:space="preserve" style="clip-rule:evenodd;fill-rule:evenodd;image-rendering:optimizeQuality;shape-rendering:geometricPrecision;text-rendering:geometricPrecision">
    <metadata id="metadata26">
        <rdf:RDF>
            <cc:Work rdf:about="">
                <dc:format>
                    image/svg+xml
                </dc:format>
                <dc:type rdf:resource="http://purl.org/dc/dcmitype/StillImage"/>
                <dc:title/>
            </cc:Work>
        </rdf:RDF>
    </metadata>
    <defs id="defs4">
        <style id="style6" type="text/css">
            <![CDATA[
    .fil2 {fill:#11A861}
    .fil0 {fill:#3777E3}
    .fil1 {fill:#FFCF63}
   ]]>
        </style>
    </defs>
    <path id="path4142" transform="scale(73.818621,73.818621)" d="M 8.5761719 3 L 12.550781 10 L 17.990234 10 L 14 3 L 8.5761719 3 z " style="opacity:1;fill:#ffffff;fill-opacity:1;fill-rule:evenodd"/>
    <path id="path4140" d="M 569.35495,258.94188 147.63724,1003.9044 348.04327,1364.7794 772.93286,617.22171 569.35495,258.94188 Z" style="fill:#ffffff;fill-opacity:1;fill-rule:evenodd;opacity:1"/>
    <path id="path4136" transform="scale(73.818621,73.818621)" d="M 8.3808594 14.064453 L 5.5761719 19 L 9 19 L 10 19 L 10 14.064453 L 9 14.064453 L 8.3808594 14.064453 z " style="fill:#ffffff;fill-opacity:1;fill-rule:evenodd;opacity:1"/>
    <path id="path4138" d="m 1273.367,920.44803 c -28.0181,-16.17622 -57.8338,-26.4791 -88.0428,-31.18679 -30.1742,-4.71357 -60.8255,-3.76864 -90.3015,2.13739 -14.7949,2.96424 -29.3073,7.09202 -43.3868,12.57531 -42.1302,16.40779 -80.22203,43.85884 -109.50125,80.9522 l 70.92105,40.94626 26.2207,15.1386 c 46.0413,-47.23348 118.6678,-59.34474 178.7267,-24.6699 35.6334,20.573 58.8235,53.3463 68.3788,89.756 l -91.7785,24.592 117.6191,67.9074 74.1674,42.8205 110.7279,-191.7864 -104.9741,28.1277 c -4.2091,-16.0332 -9.9004,-31.5266 -17.1038,-46.5008 -6.9497,-14.4469 -15.0811,-28.3836 -24.709,-41.4021 -0.32,-0.43262 -0.5653,-0.9145 -0.8881,-1.34523 -0.1168,-0.1575 -0.3108,-0.25602 -0.4274,-0.4132 -8.1431,-10.81449 -17.375,-20.72933 -27.3159,-30.25474 -2.703,-2.62204 -5.0126,-5.51688 -7.8507,-8.02877 -12.353,-10.81826 -25.7231,-20.84445 -40.4818,-29.36543 z M 901.97898,1046.9806 791.25095,1238.767 896.22508,1210.6393 c 4.1857,15.942 9.90421,31.4081 17.05104,46.304 0,0 0.0528,0.1968 0.0528,0.1968 0,0 0.12488,0.072 0.12488,0.072 6.9156,14.3686 14.96558,28.1767 24.53135,41.1331 0.47125,0.6481 0.89049,1.3112 1.3683,1.9554 8.80892,11.6995 18.64807,22.5354 29.55818,32.7147 1.71571,1.6193 3.1629,3.4353 4.93135,5.0113 12.53124,11.0508 26.13341,21.248 41.15887,29.9229 13.9838,8.0736 28.49,14.6043 43.1891,19.7743 0,0 0.1249,0.072 0.1249,0.072 29.4488,10.3395 59.9789,14.9521 90.157,14.261 15.1126,-0.3573 30.1124,-2.0937 44.8733,-5.0578 29.552,-5.921 57.9479,-16.8576 83.9278,-32.6207 0,0 0.072,-0.1249 0.072,-0.1249 12.9785,-7.8659 25.3406,-16.8216 36.8879,-26.9824 11.5455,-10.1697 22.2406,-21.435 32.0003,-33.7995 l -70.9209,-40.9464 -26.2208,-15.1386 c -46.0392,47.2544 -118.6573,59.3508 -178.7266,24.6698 -35.6395,-20.5764 -58.8234,-53.3485 -68.3789,-89.7559 l 91.7785,-24.592 -91.3982,-52.7687 -26.22087,-15.1386 -74.16735,-42.8206 z" style="opacity:1;fill:#ffffff;fill-opacity:1;fill-rule:evenodd"/>
</svg>

<?xml version="1.0" encoding="UTF-8" standalone="no"?>
<svg id="svg2" xmlns:rdf="http://www.w3.org/1999/02/22-rdf-syntax-ns#" style="image-rendering:optimizeQuality;text-rendering:geometricPrecision;shape-rendering:geometricPrecision" xmlns="http://www.w3.org/2000/svg" fill-rule="evenodd" xml:space="preserve" viewBox="0 0 1624.0097 1624.0095" width="22" version="1.1" clip-rule="evenodd" xmlns:cc="http://creativecommons.org/ns#" height="22" xmlns:dc="http://purl.org/dc/elements/1.1/">
    <metadata id="metadata26">
        <rdf:RDF>
            <cc:Work rdf:about="">
                <dc:format>
                    image/svg+xml
                </dc:format>
                <dc:type rdf:resource="http://purl.org/dc/dcmitype/StillImage"/>
                <dc:title/>
            </cc:Work>
        </rdf:RDF>
    </metadata>
    <defs id="defs4">
        <style id="style6" type="text/css">
            <![CDATA[
    .fil2 {fill:#11A861}
    .fil0 {fill:#3777E3}
    .fil1 {fill:#FFCF63}
   ]]>
        </style>
    </defs>
    <path id="path4142" d="m8.5762 3l3.9748 7h5.439l-3.99-7h-5.4238z" fill-rule="evenodd" transform="scale(73.819)" fill="#fff"/>
    <path id="path4140" d="m569.35 258.94-421.71 744.96 200.4 360.9 424.89-747.58-203.58-358.28z" fill-rule="evenodd" fill="#fff"/>
    <path id="path4136" d="m8.3809 14.064l-2.8047 4.936h3.4238 1v-4.936h-1-0.6191z" fill-rule="evenodd" transform="scale(73.819)" fill="#fff"/>
    <path id="path4138" d="m1273.4 920.45c-28.018-16.176-57.834-26.479-88.043-31.187-30.174-4.7136-60.826-3.7686-90.302 2.1374-14.795 2.9642-29.307 7.092-43.387 12.575-42.13 16.408-80.222 43.859-109.5 80.952l70.921 40.946 26.221 15.139c46.041-47.233 118.67-59.345 178.73-24.67 35.633 20.573 58.824 53.346 68.379 89.756l-91.778 24.592 117.62 67.907 74.167 42.82 110.73-191.79-104.97 28.128c-4.2091-16.033-9.9004-31.527-17.104-46.501-6.9497-14.447-15.081-28.384-24.709-41.402-0.32-0.43262-0.5653-0.9145-0.8881-1.3452-0.1168-0.1575-0.3108-0.25602-0.4274-0.4132-8.1431-10.814-17.375-20.729-27.316-30.255-2.703-2.622-5.0126-5.5169-7.8507-8.0288-12.353-10.818-25.723-20.844-40.482-29.365zm-371.42 126.55-110.73 191.8 104.98-28.2c4.1857 15.942 9.9042 31.408 17.051 46.304l0.0528 0.1968 0.12488 0.072c6.9156 14.369 14.966 28.177 24.531 41.133 0.47125 0.6481 0.89049 1.3112 1.3683 1.9554 8.8089 11.7 18.648 22.535 29.558 32.715 1.7157 1.6193 3.1629 3.4353 4.9314 5.0113 12.531 11.051 26.133 21.248 41.159 29.923 13.984 8.0736 28.49 14.604 43.189 19.774l0.1249 0.072c29.449 10.34 59.979 14.952 90.157 14.261 15.113-0.3573 30.112-2.0937 44.873-5.0578 29.552-5.921 57.948-16.858 83.928-32.621l0.072-0.1249c12.978-7.8659 25.341-16.822 36.888-26.982 11.546-10.17 22.241-21.435 32-33.8l-70.921-40.946-26.221-15.139c-46.039 47.254-118.66 59.351-178.73 24.67-35.64-20.576-58.823-53.348-68.379-89.756l91.778-24.592-91.398-52.769-26.221-15.139-74.167-42.821z" fill-rule="evenodd" fill="#fff"/>
</svg>
